!!!OTL: Symphony No. 5 in E minor, Movement 2
!!!COM: Tchaikovsky
!!!OMD: Andante cantibile, con alcuna licenza
**kern	**dynam
*staff1	*staff1
*Ifagot	*Ifagot
*I"Bassoon 1	*I"Bassoon 1
*clefF4	*clefF4
*k[f#c#]	*k[f#c#]
*M12/8	*M12/8
*tb144	*
=1-	=1-
1.r	.
=2	=2
1.r	.
=3	=3
1.r	.
=4	=4
1.r	.
=5	=5
1.r	.
=6	=6
1.r	.
=7	=7
1.r	.
=8	=8
1.r	.
=9	=9
1.r	.
=10	=10
1.r	.
=11	=11
1.r	.
=12	=12
1.r	.
=13	=13
!!LO:TX:i:Z=10:t=animando
1.r	.
=14	=14
1.r	.
=15	=15
!!LO:TX:i:Z=10:t=riten.
1.r	.
=16	=16
!!LO:REH:t=A
!!LO:TX:i:Z=10:t=sostenuto
1.r	.
=17	=17
1.r	.
=18	=18
1.r	.
=19	=19
1.r	.
=20	=20
1.r	.
=21	=21
1.r	.
=22	=22
1.r	.
=23	=23
1.r	.
=24	=24
!!LO:TX:Z=10:b:t=Con moto
1.r	.
!!LO:MREST:break
=25	=25
1.r	.
=26	=26
1.r	.
=27	=27
1.r	.
=28	=28
!!LO:TX:i:Z=10:t=sostenuto
1.r	.
=29	=29
2.r	.
4.F#\	p
(4AA#/	.
8D#\)	.
=30	=30
(4.Dn\	>
4.C#/)	]
2.r	.
=31	=31
1.r	.
=32	=32
1.r	.
=33	=33
!!LO:TX:b:Z=10:t=Tempo I
[1.AA	pp
=34	=34
(1.AA]	.
=35	=35
!!LO:TX:i:Z=10:t=animando
4BB/)	.
(8BB/	p
4AA^/)	.
(8BB/	.
4AA^/)	.
(8BB/	.
[4.AA^/)	.
=36	=36
!	!
1.AA]	mf > ]
!!LO:TX:i:Z=10:t=riten.
=37	=37
!!LO:TX:i:Z=10:t=sostenuto
[1.AA	pp
=38	=38
2.AA/_	<
4.AA/_	(
8AA/]	[
8r	.
8r	.
=39	=39
!!LO:TX:Z=10:b:t=Poco pi&ugrave; animato
4.D\	f
4.C#/	.
4.BB/	.
4r	.
8r	.
=40	=40
4.D\	.
4.C#/	.
4.BB/	.
4r	.
8r	.
=41	=41
4.G#\	ff
4.F#\	.
4.E#\	.
4r	.
8r	.
=42	=42
4.G#\	.
4.F#\	.
2.Fn\	.
=43	=43
!!LO:TX:Z=10:i:t=riten.
[2.E\	.
4.E\]	.
4.E-\	.
=44	=44
!!LO:TX:Z=10:b:t=Tempo I
4r	.
8r	.
2.E-\	p
(4.E-\	> ]
=45	=45
!!LO:REH:t=B
8D\)	pp
8r	.
8r	.
4r	.
8r	.
4.G\	pp
(4F#\	<
8En\	(
=46	=46
!!LO:TX:i:Z=10:t=animando
8D\)	[
8r	.
8r	.
4r	.
8r	.
(8.F#\L	mf
8.G#\J	.
8.A\L	.
8.F#\J	.
=47	=47
8d\)	.
8r	.
8r	.
4r	.
8r	.
(8.G#\L	ff
8.A#\J	.
8B\)	.
8r	.
8r	.
=48	=48
!!LO:TX:i:Z=10:t=riten.
8.E^\L	f
8.F#^\J	.
4.Gn^\	.
2.r	.
=49	=49
2.r	.
(4.G\	pp
4F#\	.
8E\	.
=50	=50
!!LO:TX:i:Z=10:t=animando
8D\)	.
8r	.
8r	.
4r	.
8r	.
(8.F#\L	mp
8.G#\J	.
8.A\L	.
8.F#\J	.
=51	=51
8d\)	.
8r	.
8r	.
4r	.
8r	.
(8.G#\L	mf
8.A#\J	.
8.B\L	.
8.d\J)	.
=52	=52
!!LO:REH:t=C
!!LO:TX:b:Z=10:t=Poco pi&ugrave; mosso
!	!
8E\	.
8r	.
8r	.
4r	.
8r	.
*clefC4	*clefC4
8e#\L	.
8e#\	.
8e#\J	.
8e#\L	.
8e#\	.
8e#\J	.
=53	=53
8f#\L	.
8f#\	.
8f#\J	.
8f#\L	.
8f#\	.
8f#\J	.
8f#\L	.
8f#\	.
8f#\J	.
8f#\L	.
8f#\	.
8f#\J	.
=54	=54
8f#\L	.
8f#\	.
8f#\J	.
8f#\L	.
8f#\	.
8f#\J	.
*clefF4	*clefF4
(4.B\	.
4cn\)	.
8c\	.
=55	=55
(8.cn\L	.
8.c#\J)	.
8.c#~\L	.
8.c#~\J	.
(8.c#\L	.
8.d\J)	.
8.d~\L	.
8.d~\J	.
=56	=56
!!LO:TX:b:Z=10:t=Tempo I
8d\	fff
8r	.
8r	.
8d\L	.
8d\	.
8fn\J	.
*clefC4	*clefC4
8g\L	>
8g\	)
8g\J	)
8d\L	)
8d\	)
8e\J	]
=57	=57
!!LO:TX:Z=10:i:t=animando
8g\L	ff
8g\	>
8g\J	)
8B\L	)
8B\	)
8d\J	)
8e\L	)
8e\	)
8e\J	)
8e\L	)
8e\	)
8e\J	]
=58	=58
8e\L	f
8e\	.
8e\J	.
8G/L	.
8G/	.
8G/J	.
4.G/	>
4.G#/	)
!!LO:TX:Z=10:i:t=riten.
=59	=59
!!LO:TX:Z=10:b:t=Pi&ugrave; animato
4.A\	]
4.A\	p < [
4.B\	>
4.A\	]
=60	=60
!!LO:TX:Z=10:i:t=riten.
4.A\	p <
4.A\	[
4.B\	>
4.A\	]
!!LO:MREST:break
=61	=61
!!LO:TX:Z=10:b:t=Poco meno
8A\L	p
8A\	.
8A\J	.
8A\L	.
8A\	.
8A\J	.
8A\	.
8r	.
8r	.
4r	.
8r	.
=62	=62
8B\L	.
8B\	.
8B\J	.
8B\L	.
8B\	.
8B\J	.
8B\	.
8r	.
8r	.
4r	.
8r	.
*clefF4	*clefF4
=63	=63
[4.BB/	<
8BB/]	(
8r	(
8r	(
(4.BB/	(
8D\)	(
8r	(
8r	[
=64	=64
[4.C#/	mf >
8C#/]	]
8r	.
8r	.
2.r	.
=65	=65
1.r	.
=66||	=66||
*M4/4	*M4/4
*met(c)	*met(c)
!!LO:TX:Z=10:b:t=Moderato con anima
1r	.
=67	=67
1r	.
=68	=68
1r	.
=69	=69
1r	.
=70	=70
1r	.
*clefC4	*clefC4
=71	=71
4.c#\	mf <
(8g#\	(
8b\L	[
8a\)	>
8g#~\	)
8f#~\J	]
=72	=72
4e^\	.
(36d\LLL	.
36e\	.
36d\	.
36e\	.
36d\	.
36e\	.
36d\	.
36e\	.
36d\JJJ)	.
(4c#\	.
4G#/)	.
*clefF4	*clefF4
=73	=73
([4B^\	.
16B\LL]	.
16c#\	.
16d\	.
16f#\JJ)	.
2c#\	.
=74	=74
([4B^\	.
16B\LL]	.
16c#\	.
16d\	.
16g#\JJ)	.
2c#\	.
!!LO:MREST:break
=75	=75
!!LO:REH:t=D
1r	.
=76	=76
1r	.
=77	=77
(2D\	mf
2C#/)	.
=78	=78
4BB#/	.
4AAn/	.
2GG#/	.
=79	=79
1r	.
=80	=80
1r	.
=81	=81
(2E\	mf
2D#\)	.
=82	=82
4Dn\	.
4C-/	.
2BB-/	.
*clefC4	*clefC4
=83	=83
!!LO:REH:t=E
4.B-\	f
(8fn\	<
8a-\L	(
8g-\)	[
8f~\	>
8e-~\J	]
=84	=84
4d-\	.
(36c-\LLL	.
36d-\	.
36c-\	.
36d-\	.
36c-\	.
36d-\	.
36c-\	.
36d-\	.
36c-\JJJ)	.
2B-\	.
=85	=85
([4A-^\	ff
16A-\LL]	.
16B-\	.
16c-\	.
16e-\JJ)	.
([4B-\	.
36B-\LLL]	.
36c-\	.
36B-\	.
36c-\	.
36B-\	.
36c-\	.
36B-\	.
36An\	.
36B-\JJJ)	.
=86	=86
([4A-^\	.
16A-\LL]	.
16B-\	.
16c-\	.
16fn\JJ)	.
2B-\	.
*clefF4	*clefF4
=87	=87
2A-\	mf
2G\	.
=88	=88
2F-\	.
2E-\	.
=89	=89
2D-\	f
2Cn/	.
=90	=90
4.d#\	<
(8e\	(
8g#\L	[
8f#\)	>
8e~\	)
8d#~\J	]
=91	=91
!!LO:REH:t=F
(4B#\	mf
4g#\)	.
(2g#\	.
=92	=92
8G#\)	.
8r	.
4r	.
2d#\	< [
=93	=93
(2f#^\	f
2d#\)	.
=94	=94
(2f#^\	.
2d#\)	.
=95	=95
4G#\	f
(8AA#/L	.
!	!
8BB/J	.
8BB#/L	.
8C#/	.
8D#/	.
8E/J)	.
=96	=96
!!LO:TX:i:Z=10:t=stringendo
(8E#\L	.
8F#\	.
8G#\	.
8A\J)	.
(8A#\L	.
8BB#\	.
8C#\	.
8D#\J)	.
=97	=97
(8E\L	fff
8E#\	.
8F#\	.
8G#\J)	.
(8A\L	.
8A#\	.
8Bn\	.
8c#\J)	.
=98	=98
(8B\L	.
8An\	.
8G#\	.
8F#\J)	.
(8E/L	.
8D#/	.
8C#/	.
8BB#/J)	.
=99	=99
!!LO:TX:b:Z=10:t=Tempo precedente
1E	fff
=100	=100
8E\L	.
8E\J	.
12AA/L	.
12AA/	.
12AA/J	.
4AA/	.
4AA/	.
=101	=101
1E	.
=102	=102
8E\L	.
8E\J	.
12AA/L	.
12AA/	.
12AA/J	.
4AA/	.
4GGn/	.
=103	=103
4AA/	.
4BB/	.
4C#/	.
4D\	.
=104	=104
8C#/L	.
8C#/J	.
12AA/L	.
12AA/	.
12AA/J	.
4AA/	.
4GG/	.
=105	=105
4AA/	.
4BB/	.
4C#/	.
4D\	.
=106	=106
8C#/L	.
8C#/J	.
4r	.
4r	.
8C#/	.
8r	.
=107	=107
4r	.
8C#/	.
8r	.
4r	.
8C#/	.
8r;	.
=108||	=108||
*M12/8	*M12/8
*rscale:3/2	*
!!LO:TX:b:Z=10:t=Tempo I
1r	.
=109	=109
1r	.
=110	=110
1r	.
=111	=111
1r	.
=112	=112
1r	.
=113	=113
1r	.
=114	=114
1r	.
=115	=115
1r	.
=116	=116
!!LO:REH:t=G
!!LO:TX:i:Z=10:t=animando
(2AA/	mf
12GG/)	.
12r	.
12r	.
6r	.
12r	.
=117	=117
[2AA/	mf
12AA/]	.
12r	.
12r	.
6r	.
12r	.
=118	=118
1r	.
!!LO:TX:Z=10:i:t=riten.
*rscale:1	*
=119	=119
*	*
!!LO:TZ:Z=10:i:t=sostenuto
2.r	.
4r	.
8r	.
*clefC4	*clefC4
(8f#~\L	f
8g~\	<
8a~\J)	[
=120	=120
*rscale:3/2	*
*	*
(4a\	>
2B\)	]
(12e~\L	<
12f#~\	(
12g~\J)	[
=121	=121
(4g\	>
2A\)	]
(12d~\L	<
12e~\	(
12f#~\J)	[
=122	=122
!!LO:TX:i:Z=10:t=animando
4f#\	f
6f#\	<
12f#\	(
([4f#\	(
6f#\]	(
12e\)	[
=123	=123
!!LO:TX:i:Z=10:t=sostenuto
(6b\	ff
[12a\	>
12a\L])	]
(12A~\	mf
12B~\J)	.
(12c#\L	.
12d\)	.
12e~\J	.
(12f#~\L	<
12g~\	(
12a~\J)	[
=124	=124
!!LO:REH:t=H
(4a\	>
2B\)	]
(12e~\L	<
12f#~\	(
12g~\J)	[
=125	=125
(4g\	>
2A\)	]
(12d~\L	<
12e~\	(
12f#~\J)	[
*rscale:1	*
*clefF4	*clefF4
=126	=126
!!LO:TX:i:Z=20:t=animando
*M4/4	*M4/4
*met(c)	*met(c)
16f#\LL	mf
(16G#\	.
16A\	.
16G#\JJ)	.
16r	.
!	!
(16A\LL	.
16B\	.
16A\JJ)	.
16r	.
(16B\LL	.
16c#\	.
16B\JJ)	.
16r	.
(16c#\LL	.
16d\	.
16c#\JJ)	.
=127	=127
16r	.
(16d\LL	f
16e\	.
16d\JJ)	.
16r	.
(16d\LL	.
16e\	.
16d\JJ)	.
16r	.
!!LO:TX:i:Z=10:t=riten.
(16d\LL	.
16B\	.
16c#\JJ)	f
!	!
(12d\L	.
12c#\)	.
!	!
12B~\J	.
=128	=128
!!LO:TX:Z=20:b:t=Pi&ugrave; mosso
*M12/8	*M12/8
(4.d\	.
2.c#\)	.
(8A\L	<
8B\)	(
8c#~\J	[
=129	=129
(4.e\	>
2.d\)	]
8d~\L	<
8e~\	(
8f#~\J	[
=130	=130
4.g\	f
!	!
4g\	.
8g\	.
!	!
[4.g\	.
4g\]	.
8g\	.
*clefC4	*clefC4
=131	=131
(8.g\L	.
8.f#\J)	.
8.b~\L	ff
8.a~\J	.
!	!
(8g\L	.
8f#\)	.
8e~\J	.
8d~\L	.
8c#~\	.
8B~\J	.
=132	=132
(4.d^\	f
2.c#\)	.
(8A\L	<
8B\)	(
8c#~\J	[
=133	=133
(4.e\	>
2.d\)	]
8d~\L	<
8e~\	(
8f#~\J	[
=134	=134
!!LO:TX:b:Z=10:t=Un poco pi&ugrave; animato
4.f#\	f
4.f#\	.
4.f#\	.
8d~\L	.
8e~\	.
8f#~\J	.
=135	=135
4.f#\	.
4.f#\	.
4.f#\	.
8g#~\L	ff
8a~\	.
8b~\J	.
=136	=136
4.d\	.
4.d\	.
4.d\	.
8g#~\L	.
8a~\	.
8b~\J	.
=137	=137
4.d\	.
4.d\	.
8d\	.
4B\	.
4B\	.
[8B\	.
=138	=138
!!LO:REH:t=I
8B\]	.
4B\	.
4B\	.
[8B\	.
8B\]	.
4B\	.
4B\	.
[8B\	.
=139	=139
8B\]	.
4B\	.
4B\	.
[8B\	.
8B\]	.
4B\	.
4B\	.
[8B\	.
=140	=140
8B\L]	.
!!LO:TX:i:Z=10:t=riten.
*clefF4	*clefF4
8D#\	.
8E\J	.
8F#\L	.
8G\	.
8B-\J	.
8Bn\L	.
8D#\	.
8E\J	.
8G\L	.
8G#\	.
[8A\J	.
=141	=141
8A\]	.
4gn\	.
4f#\	.
[8e\	.
8e\]	.
4B\	.
4G\	.
8E\	.
=142	=142
!!LO:TX:b:Z=40:t=Andante mosso
*M4/4	*M4/4
*met(c)	*met(c)
16D\LL	ff
16A\	.
16A\	.
16A\JJ	.
!	!
16A\LL	.
16A\	.
16A\	.
16A\JJ	.
[4A\	fff
6A\]	.
12A\	.
*	*
=143	=143
8B\L	.
8c#\J	.
8d\L	.
8B\J	.
!	!
[4f#\	.
8f#\]	.
8r	.
!	!
=144	=144
!!LO:TX:i:Z=10:t=animando
8B\L	.
8c#\J	.
8d\L	.
8B\J	.
4f#\	.
(8e\L	.
8d\J)	.
=145	=145
4d\	.
(8c#\L	.
8B\J)	.
(12E\L	.
12G\)	.
12B~\J	.
(6B\	.
12A\)	.
!!LO:TX:i:Z=10:t=riten.
=146	=146
16d\LL	ff
16A\	.
16A\	.
16A\JJ	.
16A\LL	.
16A\	.
16A\	.
16A\JJ	.
[4A\	fff
6A\]	.
12A\	.
=147	=147
!!LO:TX:i:Z=20:t=animando un poco
8B\L	.
8c#\J	.
8d\L	.
8B\J	.
!	!
[4f#\	.
8f#\]	.
8r	.
!	!
=148	=148
*	*
!	!
8B\L	.
8c#\J	.
8d\L	.
8B\J	.
4f#\	.
6f#\	.
12f#\	.
*	*
=149	=149
*rscale:2/3	*
2.E\	fff
2.D\	.
=150	=150
2.C#/	.
2.Cn/	.
*rscale:1	*
=151	=151
!!LO:REH:t=K
*M12/8	*M12/8
!LO:TX:i:Y=20:t=cresc.	!
(4.A#\	.
4B\)	.
8B\	.
(4.B\	.
4cn\)	.
8c\	.
=152	=152
(8.cn\L	.
8.c#\J)	.
8.c#\L	.
8.c#\J	.
(8.c#\L	.
8.d\J)	.
8.d\L	.
8.d\J	.
=153	=153
!!LO:TX:Z=10:b:t=Molto pi&ugrave; andante
*M4/4	*M4/4
*met(c)	*met(c)
4d\	ffff
(8F#\L	.
8B\J)	.
2A\	> ]
=154	=154
4B\	ff
!!LO:TX:i:Z=10:t=animando
(8D\L	.
8G\J)	>
2F#\	]
=155	=155
*	*
*	*
16E\LL	f
16E\	.
16E\	.
16E\JJ	.
!	!
16E\LL	.
16E\	.
16E\	.
16E\JJ	>
!!LO:TX:i:Z=10:t=riten.
4G\	)
4G#\	]
*	*
=156	=156
!!LO:TX:b:Z=10:t=Pi&ugrave; animato
4A\	mf
4A\	< [
4B\	>
4A\	]
=157	=157
!!LO:TX:i:Z=10:t=riten.
4A\	p
4A\	< [
4B\	>
4A\	]
*	*
=158||	=158||
*M4/4	*M4/4
*met(c)	*met(c)
!	!
!!LO:TX:b:Z=10:t=Allegro non troppo
4.BB/	fff
16BB/LL	.
16BB/JJ	.
4.C#/	.
16BB/LL	.
16AA#/JJ	.
=159	=159
8BB/L	.
8BB/J	.
4r	.
2r	.
=160	=160
4.D\	.
16D\LL	.
16D\JJ	.
4.E\	.
16D/LL	.
16C#/JJ	.
=161	=161
8D\L	.
8D\J	.
4r	.
4r	.
8r	.
8Fn\	.
=162	=162
8E/L	.
8D/	.
8C#/	.
8BB/J	.
4.D\	.
8Fn\	.
=163	=163
8E/L	.
8D/	.
8C#/	.
8BB/J	.
(8D\L	.
8B\J	.
8fn\L	.
8B\J)	.
=164	=164
12D\L	fff
12D\	.
12D\J	.
12D\L	.
12D\	.
12D\J	.
8D^\L	.
8D^\J	.
8D^\L	.
8D^\J	.
=165	=165
8G^\L	.
8G^\J	.
4r	.
4r	.
(4d\	mf
!!LO:TX:i:Z=10:t=riten.
=166	=166
4cn^\	.
4B-\)	.
4r	.
(4B-\	p
=167	=167
4A^\	.
4G\)	.
4r	.
(4D\	pp
=168	=168
4E\	<
4F#\)	[
(4A\	>
[4G\	)
=169	=169
2.G\])	]
4B-\	pp
=170||	=170||
*M12/8	*M12/8
!!LO:TX:b:Z=20:t=Tempo I
[4.B-^\	.
4B-\_	.
16B-\LL]	.
16A\JJ	.
[4.A\	pp
8A\]	>
8r	)
8r	]
=171	=171
8AA/L	pp
8AA/	.
8AA/J	.
8AA/L	.
8AA/	.
8AA/J	.
8AA/L	.
8AA/	.
8AA/J	.
8AA/L	.
8AA/	.
8AA/J	.
=172	=172
8AA/L	.
8AA/	.
8AA/J	.
8AA/L	.
8AA/	.
8AA/J	.
8AA/L	.
8AA/	.
8AA/J	.
8AA/L	.
8AA/	.
8AA/J	.
=173	=173
8AA/L	.
8AA/	.
8AA/J	.
8AA/L	.
8AA/	.
8AA/J	.
8D\L	<
8D\	(
8D\J	(
8D\L	(
8D\	(
8D\J	[
=174	=174
8AA/L	>
8AA/	)
8AA/J	)
8AA/L	)
8AA/	)
8AA/J	]
8D\L	<
8D\	(
8D\J	(
8D\L	(
8D\	(
8D\J	[
=175	=175
8AA/L	>
8AA/	)
8AA/J	)
8AA/L	)
8AA/	)
8AA/J	]
8D\L	<
8D\	(
8D\J	(
8D\L	(
8D\	(
8D\J	[
=176	=176
8D\L	>
8D\	)
8D\J	)
8AA/L	)
8AA/	)
8AA/J	]
8D\L	<
8D\	(
8D\J	(
8D\L	(
8D\	(
8D\J	[
=177	=177
8DD/L	>
8DD/	)
8DD/J	)
8DD/L	)
8DD/	)
8DD/J	]
[2.AA/	pp
=178	=178
8AA/L]	.
8DD/	.
8DD/J	.
8DD/L	.
8DD/	.
8DD/J	.
[2.AA/	.
=179	=179
8AA/L]	.
8AA/	pp
8AA/J	.
8AA/	.
8r	.
8r	.
8AA/L	.
8AA/	.
8AA/J	.
8AA/	.
8r	.
8r	.
=180	=180
8AA/L	ppp
8AA/	.
8AA/J	.
4r	.
8r	.
8AA/L	.
8AA/	.
8AA/J	.
4r	.
8r	.
=181	=181
4.AA/	.
4r	.
8r	.
4.AA/	.
4r	.
8r	.
=182	=182
*rscale:3/2	*
*	*
[4AA/	.
12AA/]	.
12r	.
12r	.
2r	.
*rscale:1	*
!	!
!!LO:TX:i:Z=10:t=riten. molto
=183	=183
*	*
1.r	.
=184	=184
1.r;	.
==	==
*-	*-
!!muse2ps: =z21
